src/sources/forus-platform/resources/_platform-common/assets/img/features/icons/backoffice-api/icon-2.svg

<svg width="59" height="58" viewBox="0 0 59 58" fill="none" xmlns="http://www.w3.org/2000/svg">
    <rect x="0.5" width="58" height="58" rx="8" fill="#F7F9FC"/>
    <path d="M28.0168 39.3313C30.0547 39.3313 32.0469 38.727 33.7413 37.5948C35.4358 36.4626 36.7565 34.8533 37.5363 32.9705C38.3162 31.0877 38.5203 29.016 38.1227 27.0172C37.7251 25.0185 36.7438 23.1825 35.3027 21.7415C33.8617 20.3004 32.0257 19.3191 30.027 18.9215C28.0282 18.5239 25.9564 18.728 24.0737 19.5079C22.1909 20.2877 20.5816 21.6084 19.4494 23.3029C18.3172 24.9973 17.7129 26.9895 17.7129 29.0274C17.717 31.7589 18.8039 34.3774 20.7354 36.3088C22.6668 38.2403 25.2853 39.3272 28.0168 39.3313ZM26.8719 25.5928C26.8719 25.2891 26.9925 24.9979 27.2072 24.7832C27.4219 24.5685 27.7131 24.4479 28.0168 24.4479C28.3204 24.4479 28.6116 24.5685 28.8263 24.7832C29.041 24.9979 29.1617 25.2891 29.1617 25.5928V28.5466L31.2568 30.6417C31.4709 30.8576 31.5908 31.1495 31.5902 31.4536C31.5896 31.7576 31.4685 32.0491 31.2535 32.2641C31.0385 32.4791 30.747 32.6002 30.443 32.6008C30.1389 32.6014 29.8469 32.4815 29.6311 32.2674L27.2039 29.8403C26.9939 29.6214 26.8751 29.3307 26.8719 29.0274V25.5928Z" fill="#305DFC"/>
    <path d="M28.0167 13C27.713 13 27.4218 13.1206 27.2071 13.3354C26.9924 13.5501 26.8718 13.8413 26.8718 14.1449C26.8718 14.4485 26.9924 14.7397 27.2071 14.9545C27.4218 15.1692 27.713 15.2898 28.0167 15.2898C31.2217 15.2765 34.3313 16.3796 36.8115 18.4096C39.2917 20.4395 40.9878 23.2697 41.6084 26.4141C42.229 29.5585 41.7354 32.8208 40.2124 35.6409C38.6895 38.461 36.2321 40.6628 33.2624 41.8682C30.2927 43.0737 26.996 43.2075 23.9383 42.2468C20.8807 41.2861 18.2529 39.2907 16.5064 36.6034C14.7598 33.916 14.0034 30.7044 14.367 27.5201C14.7307 24.3358 16.1917 21.3774 18.4992 19.1531L18.4216 19.7452C18.3821 20.0463 18.4639 20.3508 18.6489 20.5916C18.8339 20.8324 19.107 20.9899 19.4081 21.0294C19.7093 21.0689 20.0137 20.9871 20.2546 20.8021C20.4954 20.6171 20.6529 20.344 20.6923 20.0429L21.1379 16.6373C21.1652 16.3384 21.0787 16.0401 20.8957 15.8022C20.7127 15.5643 20.4466 15.4041 20.1507 15.3538L16.7451 14.9085C16.594 14.8845 16.4396 14.891 16.291 14.9277C16.1424 14.9643 16.0027 15.0304 15.8801 15.122C15.7575 15.2136 15.6545 15.3289 15.5772 15.4609C15.4999 15.593 15.4499 15.7392 15.4301 15.891C15.4103 16.0427 15.4211 16.1969 15.4619 16.3444C15.5027 16.4919 15.5726 16.6297 15.6676 16.7497C15.7626 16.8697 15.8807 16.9695 16.0149 17.0431C16.149 17.1166 16.2966 17.1626 16.4489 17.1781L17.1618 17.2716C14.4286 19.8077 12.6671 23.2188 12.1813 26.9156C11.6956 30.6124 12.5162 34.3627 14.5014 37.5189C16.4865 40.675 19.5117 43.0387 23.0542 44.2017C26.5968 45.3647 30.4342 45.254 33.9038 43.8887C37.3734 42.5234 40.2572 39.9892 42.0572 36.7238C43.8571 33.4585 44.4601 29.6671 43.762 26.0044C43.064 22.3418 41.1087 19.038 38.2338 16.6636C35.359 14.2892 31.7452 12.9934 28.0167 13Z" fill="#64666F"/>
</svg>

<svg width="59" height="58" fill="none" xmlns="http://www.w3.org/2000/svg"><rect x=".5" width="58" height="58" rx="8" fill="#F7F9FC"/><path d="M28.017 39.331a10.304 10.304 0 1 0-10.304-10.304 10.32 10.32 0 0 0 10.304 10.304Zm-1.145-13.738a1.145 1.145 0 1 1 2.29 0v2.954l2.095 2.095a1.15 1.15 0 0 1-1.626 1.625l-2.427-2.427a1.193 1.193 0 0 1-.332-.813v-3.434Z" fill="#305DFC"/><path d="M28.017 13a1.145 1.145 0 1 0 0 2.29 13.795 13.795 0 1 1-9.518 3.863l-.077.592a1.145 1.145 0 1 0 2.27.298l.446-3.406a1.192 1.192 0 0 0-.987-1.283l-3.406-.445a1.145 1.145 0 1 0-.296 2.27l.713.093A16 16 0 1 0 28.017 13Z" fill="#64666F"/></svg>
